!!!!SEGMENT: pl-sa--279-a-vii-39--001_rathgeber-johann-valentin--vesperae-dixit-dominus.krn
!!!cenid: 17xx:622
!!!COM: Rathgeber, Johann Valentin
!!!COM-rismid: pe30002639
!!!CDT: 1682/04/03-1750/06/02
!!!CNT: German
!!!OTL: Vesperae – Dixit Dominus
!!!PDT: 1731
!!!AGN: Sacred; Vespers
!!!SMS-siglum: PL-SA
!!!SMS-shelfmark: 279/A VII 39
!!!SMS-shelfwork: 001-001 M
!!!SMS-variant:
!!!SMS-altvar:
!!!NIFC-rismid: 1001077278
!!!URL-scan: http://bc.bdsandomierz.pl/dlibra/publication/1762/edition/1730/content
!!!ONB-nifc: UWAGA: części Vesperae: Dixit Dominus, Laudate Pueri, Laetatus sum, Nisi Dominus, Lauda Jerusalem, Magnificat
**kern	**fba	**kern	**kern	**kern	**text	**kern	**text	**kern	**text	**kern	**text
*part7	*	*part6	*part5	*part4	*part4	*part3	*part3	*part2	*part2	*part1	*part1
*staff7	*	*staff6	*staff5	*staff4	*staff4	*staff3	*staff3	*staff2	*staff2	*staff1	*staff1
*I"Organo	*	*I"Violino Unisono	*I"Violino Unisono	*I"Baſso	*	*I"Tenore	*	*I"Alto	*	*I"Canto	*
*I'Org.	*	*I'Vn U	*I'Vn U	*I'B.	*	*I'T.	*	*I'A.	*	*I'C.	*
*group3	*	*group2	*group2	*group1	*	*group1	*	*group1	*	*group1	*
*clefF4	*	*clefG2	*clefG2	*clefF4	*	*clefC4	*	*clefC3	*	*clefC1	*
*k[]	*	*k[]	*k[]	*k[]	*	*k[]	*	*k[]	*	*k[]	*
*C:	*	*C:	*C:	*C:	*	*C:	*	*C:	*	*C:	*
*M2/4	*	*M2/4	*M2/4	*M2/4	*	*M2/4	*	*M2/4	*	*M2/4	*
=1	=1	=1	=1	=1	=1	=1	=1	=1	=1	=1	=1
*	*	*	*	*2\right	*	*2\right	*	*2\right	*	*2\right	*
!LO:TX:b:t=Dixit Domin(us) Domino	!	!LO:TX:b:t=Dixit Dominus	!LO:TX:b:t=Dixit Dominus	!	!	!	!	!	!	!	!
!LO:TX:a:i:t=Tutti	!	!LO:TX:t=P:problem: partia z kart 42-43	!LO:TX:t=P:problem: partia z kart 34-35	!	!	!LO:TX:t=P:problem: nazwa głosu: Tenere	!	!LO:TX:t=allegro	!	!	!
4c\	.	8ee\L	8ee\L	4c\	Di-	4G/	Di-	4e\	Di-	4cc\	Di-
.	.	8gg\	8gg\	.	.	.	.	.	.	.	.
4B\	6	8gg\	8gg\	4B\	-xit	4G/	-xit	4g\	-xit	4dd\	-xit
.	.	8gg\J	8gg\J	.	.	.	.	.	.	.	.
=2	=2	=2	=2	=2	=2	=2	=2	=2	=2	=2	=2
!	!	!LO:TX:t=P:problem:mixed beam	!LO:TX:t=P:problem:mixed beam	!	!	!	!	!	!	!	!
4c\	.	8gg\L	8gg/L	4c\	Do-	4c\	Do-	4g\	Do-	4ee\	Do-
.	.	8g/	8g\	.	.	.	.	.	.	.	.
4E\	6	8g/	8g\	8E\	-mi-	8c\	-mi-	8g\	-mi-	8gg\	-mi-
.	.	8g/J	8g\J	8E\	-n(us)	8c\	-n(us)	8g\	-n(us)	8cc\	-nus
=3	=3	=3	=3	=3	=3	=3	=3	=3	=3	=3	=3
4F\	6 5	12a/L	12a/L	4F\	Do-	4d\	Do-	4a\	Do-	4cc\	Do-
.	.	12g/	12g/	.	.	.	.	.	.	.	.
.	.	12a/J	12a/J	.	.	.	.	.	.	.	.
!	!	!LO:TUP:b	!	!	!	!	!	!	!	!	!
4G\	.	12b/L	12b/L	8G\	-mi-	8d\	-mi-	8g\	-mi-	8b\	-mi-
.	.	12a/	12a/	.	.	.	.	.	.	.	.
.	.	.	.	8G\	-no	8d\	-no	8g\	-no	8b\	-no
.	.	12b/J	12b/J	.	.	.	.	.	.	.	.
=4	=4	=4	=4	=4	=4	=4	=4	=4	=4	=4	=4
!	!	!	!LO:TX:t=P:problem:mixed beam	!	!	!	!	!	!	!	!
2C/	.	8dd\L	8cc\L	4C/	me-	4e\	me-	4g\	me-	4cc\	me-
.	.	8g\J	8g/J	.	.	.	.	.	.	.	.
!	!	!	!LO:TX:t=P:problem:mixed beam	!	!	!LO:TX:t=P:problem: oddech jako rozdzielacz słów:global	!	!	!	!	!
!	!	!LO:TX:t=P:problem:mixed beam	!	!	!	!	!	!	!	!	!
.	.	8g/L	8g/L	4C/	-o	4e,\	-o	4g\	-o	4cc\	-o
.	.	8gg\J	8gg\J	.	.	.	.	.	.	.	.
=5	=5	=5	=5	=5	=5	=5	=5	=5	=5	=5	=5
4c\	.	12ee\L	12ee\L	4c\	ſe-	4c\	ſe-	4g\	ſe-	4ee\	ſe-
.	.	12ff\	12ff\	.	.	.	.	.	.	.	.
.	.	12ee\J	12ee\J	.	.	.	.	.	.	.	.
4B\	.	12dd\L	12dd\L	8B\	-de	8d\	-de	8g\	-de	8dd\	-de
.	.	12ee\	12ee\	.	.	.	.	.	.	.	.
.	.	.	.	8B\	ad	8d\	a	8g\	a	8cc\	a
.	.	12dd\J	12dd\J	.	.	.	.	.	.	.	.
=6	=6	=6	=6	=6	=6	=6	=6	=6	=6	=6	=6
4A\	5 6|	12cc\L	12cc\L	4A\	dex-	4A/	dex-	(8e\L	dex-	4cc\	dex-
.	.	12dd\	12dd\	.	.	.	.	.	.	.	.
.	.	.	.	.	.	.	.	8f#X\J)	.	.	.
.	.	12cc\J	12cc\J	.	.	.	.	.	.	.	.
4G\	.	12b\L	12b\L	4G\	-tris	4d\	-tris	4g\	-tris	4b\	-tris
.	.	12cc\	12cc\	.	.	.	.	.	.	.	.
.	.	12b\J	12b\J	.	.	.	.	.	.	.	.
=7	=7	=7	=7	=7	=7	=7	=7	=7	=7	=7	=7
!	!	!	!	!	!	!	!	!	!	!LO:TX:t=P:problem: nad nutą litera a	!
2D/	4	12a/L	12a/L	2D/	me-	2d\	me-	(4g\	me-	2g\	me-
.	3#	12b/	12b/	.	.	.	.	.	.	.	.
.	.	12a/J	12a/J	.	.	.	.	.	.	.	.
.	.	12dd\L	12dd\L	.	.	.	.	4f#X\)	-is	.	.
.	.	12ee\	12ee\	.	.	.	.	.	.	.	.
.	.	12dd\J	12dd\J	.	.	.	.	.	.	.	.
!	!	!LO:LB:g=original	!LO:LB:g=original	!	!	!	!	!	!	!	!
=8	=8	=8	=8	=8	=8	=8	=8	=8	=8	=8	=8
!LO:TX:t=P:problem:mixed beam	!	!	!	!	!	!	!	!	!	!	!
8GG/L	.	8b/L	8b/L	4GG/	-is	4d\	-is	4g\	.	4g/	-is
8G\	.	8g/	8g/	.	.	.	.	.	.	.	.
8E\	6	8g/	8g/	4r	.	4r	.	4r	.	4r	.
8C\J	.	8g/J	8g/J	.	.	.	.	.	.	.	.
=9	=9	=9	=9	=9	=9	=9	=9	=9	=9	=9	=9
!LO:TX:t=P:problem: Violino=Vio:global	!	!	!	!	!	!	!	!	!	!	!
!LO:TX:b:i:t=Vio	!	!LO:TUP:b	!LO:TUP:b	!LO:N:vis=00	!	!LO:N:vis=00	!	!LO:N:vis=00	!	!LO:N:vis=00	!
4F\	.	12a/L	12a/L	0r	.	0r	.	0r	.	0r	.
.	.	12g/	12g/	.	.	.	.	.	.	.	.
.	.	12a/J	12a/J	.	.	.	.	.	.	.	.
!	!	!LO:TUP:b	!LO:TUP:b	!	!	!	!	!	!	!	!
4G\	.	12b/L	12b/L	.	.	.	.	.	.	.	.
.	.	12a/	12a/	.	.	.	.	.	.	.	.
.	.	12b/J	12b/J	.	.	.	.	.	.	.	.
=10	=10	=10	=10	=10	=10	=10	=10	=10	=10	=10	=10
4A\	6	12cc\L	12cc\L	.	.	.	.	.	.	.	.
.	.	12b\	12b\	.	.	.	.	.	.	.	.
.	.	12cc\J	12cc\J	.	.	.	.	.	.	.	.
4B\	.	12dd\L	12dd\L	.	.	.	.	.	.	.	.
.	.	12cc\	12cc\	.	.	.	.	.	.	.	.
.	.	12dd\J	12dd\J	.	.	.	.	.	.	.	.
=11	=11	=11	=11	=11	=11	=11	=11	=11	=11	=11	=11
4c\	.	12ee\L	12ee\L	.	.	.	.	.	.	.	.
.	.	12dd\	12dd\	.	.	.	.	.	.	.	.
.	.	12ee\J	12ee\J	.	.	.	.	.	.	.	.
4E\	.	8cc\L	8cc\L	.	.	.	.	.	.	.	.
.	.	8gg\J	8gg\J	.	.	.	.	.	.	.	.
!LO:LB:g=original	!	!	!	!	!	!	!	!	!	!	!
=12	=12	=12	=12	=12	=12	=12	=12	=12	=12	=12	=12
4F\	.	12aa\L	12aa\L	.	.	.	.	.	.	.	.
.	.	12gg\	12gg\	.	.	.	.	.	.	.	.
.	.	12aa\J	12aa\J	.	.	.	.	.	.	.	.
4G\	.	12dd\L	12dd\L	.	.	.	.	.	.	.	.
.	.	12cc\	12cc\	.	.	.	.	.	.	.	.
.	.	12dd\J	12dd\J	.	.	.	.	.	.	.	.
!	!	!	!	!	!	!LO:LB:g=original	!	!	!	!	!
=13	=13	=13	=13	=13	=13	=13	=13	=13	=13	=13	=13
!LO:TX:t=P:problem:mixed beam	!	!	!	!	!	!	!	!	!	!	!
8C/L	.	8ee\L	8ee\L	4c\	Do-	4G/	Do-	4e\	Do-	4cc\	Do-
!LO:TX:t=P:problem: Tutti=Tut	!	!	!	!	!	!	!	!	!	!	!
!LO:TX:b:i:t=Tut	!	!	!	!	!	!	!	!	!	!	!
8c\	.	8gg\	8gg\	.	.	.	.	.	.	.	.
8B\	.	8gg\	8gg\	4B\	-nec	4G/	-nec	4g\	-nec	4dd\	-nec
8G\J	.	8gg\J	8gg\J	.	.	.	.	.	.	.	.
!	!	!	!	!LO:LB:g=original	!	!	!	!	!	!LO:LB:g=original	!
=14	=14	=14	=14	=14	=14	=14	=14	=14	=14	=14	=14
!	!	!LO:TX:t=P:problem:mixed beam	!LO:TX:t=P:problem:mixed beam	!	!	!	!	!	!	!	!
4c\	.	8gg\L	8gg\L	8c\	po-	8c\	po-	8g\	po-	8ee\	po-
!	!	!	!	!LO:TX:t=P:problem: oddechy znaczone na wysokości pierwszej linii:global	!	!	!	!LO:LB:g=original	!	!	!
.	.	8g/J	8g/	8c,\	-nam	8c\	-nam	8g\	-nam	8ee\	-nam
4E\	6	8f/L	8g/	8E\	i-	8c\	i-	8g\	i-	8gg\	i-
.	.	8f/J	8g/J	8E\	-ni-	8c\	-ni-	8g\	-ni-	8cc\	-ni-
=15	=15	=15	=15	=15	=15	=15	=15	=15	=15	=15	=15
4F\	6 5	12a/L	12a/L	4F\	-mi-	4d\	-mi-	4a\	-mi-	4cc\	-mi-
.	.	12g/	12g/	.	.	.	.	.	.	.	.
.	.	12a/J	12a/J	.	.	.	.	.	.	.	.
!	!	!	!	!	!	!	!	!LO:TX:t=P:problem: oddech jako rozdzielacz słów:global	!	!	!
4G\	.	12b/L	12b/L	4G\	-cos	4d\	-cos	4g,\	-cos	4b\	-cos
.	.	12a/	12a/	.	.	.	.	.	.	.	.
.	.	12b/J	12b/J	.	.	.	.	.	.	.	.
!	!	!LO:LB:g=original	!LO:LB:g=original	!	!	!	!	!	!	!	!
=16	=16	=16	=16	=16	=16	=16	=16	=16	=16	=16	=16
4C/	.	8cc\L	8dd\L	4C/	tu-	4f\	tu-	4g\	tu-	4cc\	tu-
.	.	8g\J	8g\J	.	.	.	.	.	.	.	.
!	!	!	!	!	!	!	!	!	!	!LO:TX:t=P:problem: oddech jako rozdzielacz słów:global	!
!LO:TX:t=P:problem:mixed beam	!	!LO:TX:t=P:problem:mixed beam	!LO:TX:t=P:problem:mixed beam	!	!	!	!	!	!	!	!
8C/L	.	8g/L	8g/L	8C,/	-os	8e,\	-os	8g,\	-os	8cc,\	-os
8G\J	.	8gg\J	8gg\J	8G\	ſca-	8d\	ſca-	8g\	ſca-	8dd\	ſca-
=17	=17	=17	=17	=17	=17	=17	=17	=17	=17	=17	=17
4c\	.	12ee\L	12ee\L	4c\	-bel-	4c\	-bel-	4g\	-bel-	4ee\	-bel-
.	.	12ff\	12ff\	.	.	.	.	.	.	.	.
.	.	12ee\J	12ee\J	.	.	.	.	.	.	.	.
!	!	!	!	!	!	!LO:TX:t=P:problem:oznaczenie apostrofem na końcu wyrazu niezapisanej spółgłoski 'm':global	!	!LO:TX:t=P:problem:oznaczenie apostrofem na końcu wyrazu niezapisanej spółgłoski 'm':global	!	!LO:TX:t=P:problem:oznaczenie apostrofem na końcu wyrazu niezapisanej spółgłoski 'm':global	!
4B\	.	12dd\L	12dd\L	4B\	-lum	4d\	-lu(m)	4g\	-lu(m)	4dd\	-lu(m)
.	.	12ee\	12ee\	.	.	.	.	.	.	.	.
.	.	12dd\J	12dd\J	.	.	.	.	.	.	.	.
=18	=18	=18	=18	=18	=18	=18	=18	=18	=18	=18	=18
4A\	5	12cc\L	12cc\L	4A\	pe-	4A\	pe-	(8e\L	pe-	4cc\	pe-
.	6|	12dd\	12dd\	.	.	.	.	.	.	.	.
.	.	.	.	.	.	.	.	8f#X\J)	-du(m)	.	.
.	.	12cc\J	12cc\J	.	.	.	.	.	.	.	.
4G\	.	12b\L	12b\L	8G\	-dum	8d\	-du(m)	8g\	tu-	8b\	-du(m)
.	.	12cc\	12cc\	.	.	.	.	.	.	.	.
.	.	.	.	8G\	tu-	8d\	tu-	8g\	-o-	8b\	tu-
.	.	12b\J	12b\J	.	.	.	.	.	.	.	.
=19	=19	=19	=19	=19	=19	=19	=19	=19	=19	=19	=19
!	!	!LO:TUP:b	!	!	!	!	!	!	!	!	!
2D/	.	12a/L	12a/L	2D/	-o-	2d\	-o-	(4g\	-rum	2a\	-o-
.	.	12b/	12b/	.	.	.	.	.	.	.	.
.	.	12a/J	12a/J	.	.	.	.	.	.	.	.
.	.	12dd\L	12dd\L	.	.	.	.	4f#X\)	.	.	.
.	.	12ee\	12ee\	.	.	.	.	.	.	.	.
.	.	12dd\J	12dd\J	.	.	.	.	.	.	.	.
=20	=20	=20	=20	=20	=20	=20	=20	=20	=20	=20	=20
8GG/L	.	8b/L	8b/L	4GG/	-rum	4d\	-rum	4g\	.	4g/	-ru(m)
!LO:TX:t=P:problem:mixed beam	!	!LO:TX:t=P:problem: wysokość nut 2-4 nieprecyzyjna: f lub g	!	!	!	!	!	!	!	!	!
8G\	.	8g/	8g/	.	.	.	.	.	.	.	.
8F\	.	8g/	8g/	4r	.	4r	.	4r	.	4r	.
8C\J	.	8g/J	8g/J	.	.	.	.	.	.	.	.
=21	=21	=21	=21	=21	=21	=21	=21	=21	=21	=21	=21
!	!	!LO:TUP:b	!LO:TUP:b	!	!	!	!	!	!	!	!
4F\	.	12a/L	12a/L	4r	.	4r	.	4r	.	4r	.
.	.	12g/	12g/	.	.	.	.	.	.	.	.
.	.	12a/J	12a/J	.	.	.	.	.	.	.	.
4G\	.	12dd\L	12dd\L	8r	.	8r	.	8r	.	8r	.
.	.	12ee\	12ee\	.	.	.	.	.	.	.	.
.	.	.	.	8G\	ſca-	8d\	ſca-	8g\	ſca-	8b\	ſca-
.	.	12dd\J	12dd\J	.	.	.	.	.	.	.	.
!	!	!	!	!	!	!LO:LB:g=original	!	!	!	!	!
=22	=22	=22	=22	=22	=22	=22	=22	=22	=22	=22	=22
4A\	6	12cc\L	12cc\L	4A\	-bel-	4c\	-bel-	4f\	-bel-	4cc\	-bel-
.	.	12b\	12b\	.	.	.	.	.	.	.	.
.	.	12cc\J	12cc\J	.	.	.	.	.	.	.	.
4B\	6 5	12dd\L	12dd\L	4B\	-lum	4G/	-lum	4f\	-lu(m)	4dd\	-lum
.	.	12cc\	12cc\	.	.	.	.	.	.	.	.
.	.	12dd\J	12dd\J	.	.	.	.	.	.	.	.
!	!	!	!	!LO:LB:g=original	!	!	!	!	!	!	!
=23	=23	=23	=23	=23	=23	=23	=23	=23	=23	=23	=23
4c\	.	12ee\L	12ee\L	4c\	pe-	4c\	pe-	4e\	pe-	4ee\	pe-
.	.	12dd\	12dd\	.	.	.	.	.	.	.	.
.	.	12ee\J	12ee\J	.	.	.	.	.	.	.	.
!	!	!LO:LB:g=original	!	!	!	!	!	!	!	!	!
4F\	6 5	12aa\L	12aa\L	8F,\	-dum	8d\	-dum	8a\	-dum	8ff\	-du(m)
.	.	12gg\	12gg\	.	.	.	.	.	.	.	.
.	.	.	.	8F\	tu-	8c\	tu-	8a\	tu-	8ee\	tu-
.	.	12aa\J	12aa\J	.	.	.	.	.	.	.	.
!	!	!	!	!	!	!	!	!	!	!LO:LB:g=original	!
=24	=24	=24	=24	=24	=24	=24	=24	=24	=24	=24	=24
4G\	4	12dd\L	12dd\L	(4G\	-o-	(4c\	-o-	2g\	-o-	2dd\	-o-
.	.	12cc\	12cc\	.	.	.	.	.	.	.	.
.	.	12dd\J	12dd\J	.	.	.	.	.	.	.	.
!LO:LB:g=original	!	!	!LO:LB:g=original	!	!	!	!	!	!	!	!
4GG/	3	12gg\L	12gg\L	4GG/)	.	4B\)	.	.	.	.	.
.	.	12ff\	12ff\	.	.	.	.	.	.	.	.
.	.	12gg\J	12gg\J	.	.	.	.	.	.	.	.
!	!	!	!	!	!	!	!	!LO:LB:g=original	!	!	!
=25	=25	=25	=25	=25	=25	=25	=25	=25	=25	=25	=25
4C/	.	8ee\	8ee\	8C/	-rum	8c\	-rum	8g\	-rum	8cc,\	-rum
.	.	8r	8r	8r	.	8r	.	8r	.	8g/	Vir-
8r	.	4r	4r	4r	.	4r	.	4r	.	8cc\	-ga
8G\	.	.	.	.	.	.	.	.	.	(8dd\	Vir-
=26	=26	=26	=26	=26	=26	=26	=26	=26	=26	=26	=26
!	!	!	!	!LO:N:vis=00	!	!LO:N:vis=00	!	!LO:N:vis=00	!	!	!
4c\	.	8r	8r	0r	.	0r	.	0r	.	4ee\)	-tu-
.	.	8g/	8g/	.	.	.	.	.	.	.	.
8r	.	8cc\L	8cc\L	.	.	.	.	.	.	4dd\	-tis
8G\	.	8dd\J	8dd\J	.	.	.	.	.	.	.	.
=27	=27	=27	=27	=27	=27	=27	=27	=27	=27	=27	=27
!LO:TX:b:i:t=Canto	!	!	!	!	!	!	!	!	!	!	!
4C/	.	12ee\L	12ee\L	.	.	.	.	.	.	8r	.
.	.	12ff\	12ff\	.	.	.	.	.	.	.	.
.	.	.	.	.	.	.	.	.	.	8g/	Vir-
.	.	12gg\J	12gg\J	.	.	.	.	.	.	.	.
8r	.	8g/L	8f/L	.	.	.	.	.	.	8cc\	-ga
8G\	.	8b/J	8b/J	.	.	.	.	.	.	8dd\	Vir-
=28	=28	=28	=28	=28	=28	=28	=28	=28	=28	=28	=28
4c\	.	4cc\	4cc\	.	.	.	.	.	.	4ee\	-tu-
8r	.	4r	4r	.	.	.	.	.	.	4dd\	-tis
8G\	.	.	.	.	.	.	.	.	.	.	.
=29	=29	=29	=29	=29	=29	=29	=29	=29	=29	=29	=29
!	!	!LO:N:vis=0	!LO:N:vis=0	!	!	!	!	!	!	!	!
4C/	.	1r	1r	.	.	.	.	.	.	4cc\	tu-
8r	.	.	.	.	.	.	.	.	.	8cc,\	-ae
8G\	.	.	.	.	.	.	.	.	.	8dd\	e-
=30	=30	=30	=30	=30	=30	=30	=30	=30	=30	=30	=30
!	!	!	!	!LO:N:vis=00	!	!LO:N:vis=00	!	!LO:N:vis=00	!	!	!
4c\	.	.	.	0r	.	0r	.	0r	.	12ee\L	-mit-
.	.	.	.	.	.	.	.	.	.	12ff\	.
.	.	.	.	.	.	.	.	.	.	12ee\J	.
4B\	.	.	.	.	.	.	.	.	.	12dd\L	.
.	.	.	.	.	.	.	.	.	.	12ee\	.
.	.	.	.	.	.	.	.	.	.	12dd\J	.
=31	=31	=31	=31	=31	=31	=31	=31	=31	=31	=31	=31
4A\	5 6|	4r	4r	.	.	.	.	.	.	12cc\L	.
.	.	.	.	.	.	.	.	.	.	12dd\	.
.	.	.	.	.	.	.	.	.	.	12cc\J	.
4G\	.	8r	8r	.	.	.	.	.	.	12b\L	.
.	.	.	.	.	.	.	.	.	.	12cc\	.
.	.	8gg\	8gg\	.	.	.	.	.	.	.	.
.	.	.	.	.	.	.	.	.	.	12b\J	.
=32	=32	=32	=32	=32	=32	=32	=32	=32	=32	=32	=32
4D/	#	12ff#X\L	12ff#X\L	.	.	.	.	.	.	12a\L	.
.	.	12gg\	12gg\	.	.	.	.	.	.	12b\	.
.	.	12ff#\J	12ff#\J	.	.	.	.	.	.	12a\J	.
4G\	.	12gg\L	12gg\L	.	.	.	.	.	.	12b\L	.
.	.	12aa\	12aa\	.	.	.	.	.	.	12cc\	.
.	.	12gg\J	12gg\J	.	.	.	.	.	.	12b\J	.
!	!	!	!	!	!	!	!	!	!	!LO:LB:g=original	!
=33	=33	=33	=33	=33	=33	=33	=33	=33	=33	=33	=33
4D/	#	12ff#X\L	12ff#X\L	.	.	.	.	.	.	12a\L	.
.	.	12gg\	12gg\	.	.	.	.	.	.	12b\	.
.	.	12ff#\J	12ff#\J	.	.	.	.	.	.	12a\J	.
!	!	!LO:LB:g=original	!	!	!	!	!	!	!	!	!
4G\	.	12gg\L	12gg\L	.	.	.	.	.	.	12b\L	.
.	.	12aa\	12aa\	.	.	.	.	.	.	12cc\	.
.	.	12gg\J	12gg\J	.	.	.	.	.	.	12b\J	.
=34	=34	=34	=34	=34	=34	=34	=34	=34	=34	=34	=34
!	!	!	!	!LO:N:vis=0	!	!LO:N:vis=0	!	!LO:N:vis=0	!	!	!
8D/L	#	16ff#X\LL	16ff#X\LL	1r	.	1r	.	1r	.	8a\	.
.	.	16dd\	16dd\	.	.	.	.	.	.	.	.
8C/	.	16ee\	16ee\	.	.	.	.	.	.	8a\	-tet
.	.	16ff#\JJ	16ff#\JJ	.	.	.	.	.	.	.	.
8BB/	.	4gg\	4gg\	.	.	.	.	.	.	8b\	Do-
8AA/J	.	.	.	.	.	.	.	.	.	8cc\	-mi-
=35	=35	=35	=35	=35	=35	=35	=35	=35	=35	=35	=35
8GG/L	.	8r	8r	.	.	.	.	.	.	8dd\	-n(us)
8C/	6	8aa\L	8aa\L	.	.	.	.	.	.	(16cc\LL	ex
.	.	.	.	.	.	.	.	.	.	16b\JJ)	.
8D/	4	8dd\	8dd\	.	.	.	.	.	.	4a\	ſi-
8DD/J	3#	8ff#X\J	8ff#X\J	.	.	.	.	.	.	.	.
!LO:LB:g=original	!	!	!LO:LB:g=original	!	!	!	!	!	!	!	!
=36	=36	=36	=36	=36	=36	=36	=36	=36	=36	=36	=36
4GG/	.	8gg\L	8gg\L	4r	.	4r	.	4r	.	4g,/	-on
.	.	8dd\J	8dd\J	.	.	.	.	.	.	.	.
!LO:TX:t=P:problem: Tutti=Tut	!	!	!	!	!	!	!	!	!	!	!
!LO:TX:b:i:t=Tut	!	!	!	!	!	!	!	!	!	!	!
8G\L	.	8dd\L	8dd\L	8G\	Do-	8B\	Do-	8g\	Do-	8dd\	Do-
8F#X\J	6	8dd\J	8dd\J	8F#X\	-mi-	8A/	-mi-	8g\	-mi-	8dd\	-mi-
=37	=37	=37	=37	=37	=37	=37	=37	=37	=37	=37	=37
!	!	!	!LO:TUP:b	!	!	!	!	!	!	!	!
4G\	.	12b/L	12b/L	4G\	-na-	4B\	-na-	4g\	-na-	4dd\	-na-
.	.	12a/	12a/	.	.	.	.	.	.	.	.
.	.	12b/J	12b/J	.	.	.	.	.	.	.	.
!	!	!LO:TX:t=P:problem:mixed beam	!LO:TX:t=P:problem:mixed beam	!	!	!	!	!	!	!	!
4BB/	.	8g/L	8g/L	8BB,/	-re	8B,\	-re	8g,\	-re	8dd,\	-re
.	.	8dd\J	8dd\J	8BB/	in	8B\	in	8g\	in	8dd\	in
=38	=38	=38	=38	=38	=38	=38	=38	=38	=38	=38	=38
4C/	6 5	12ee\L	12ee\L	4C/	me-	4A/	me-	4g\	me-	4ee\	me-
.	.	12dd\	12dd\	.	.	.	.	.	.	.	.
.	.	12ee\J	12ee\J	.	.	.	.	.	.	.	.
!	!	!LO:TX:t=P:problem:oznaczenie trioli na górze i na dole	!	!	!	!	!	!	!	!	!
4D/	#	12a/L	12a/L	4D/	-di-	4A/	-di-	4f#X\	-di-	4dd\	-di-
!	!	!LO:TX:b:i:t=3	!	!	!	!	!	!	!	!	!
.	.	12g/	12g/	.	.	.	.	.	.	.	.
.	.	12a/J	12a/J	.	.	.	.	.	.	.	.
=39	=39	=39	=39	=39	=39	=39	=39	=39	=39	=39	=39
!LO:TX:t=P:problem:mixed beam	!	!LO:TX:t=P:problem:oznaczenie trioli na górze i na dole	!LO:TUP:b	!	!	!	!	!	!	!	!
8GG/L	.	12b/L	12b/L	8GG,/	-o	8B,\	-o	8g,\	-o	8dd,\	-o
!	!	!LO:TX:b:i:t=3	!	!	!	!	!	!	!	!	!
.	.	12a/	12a/	.	.	.	.	.	.	.	.
8G\	.	.	.	8G\	I-	8B\	i-	8d\	i-	8dd\	i-
.	.	12b/J	12b/J	.	.	.	.	.	.	.	.
!	!	!LO:TX:t=P:problem:mixed beam	!LO:TX:t=P:problem:mixed beam	!	!	!	!	!	!	!	!
8G\	.	8g/L	8g/L	8G\	-ni-	8B\	-ni-	8d\	-ni-	8dd\	-ni-
8F#X\J	.	8dd\J	8dd\J	8F#X\	-mi-	8B\	-mi-	8d\	-mi-	8dd\	-mi-
!	!	!	!	!	!	!LO:LB:g=original	!	!	!	!	!
=40	=40	=40	=40	=40	=40	=40	=40	=40	=40	=40	=40
4E\	6| 5	12gg\L	12gg\L	4E\	-co-	(8B\L	-co-	4e\	-co-	4gg\	-co-
.	.	12aa\	12aa\	.	.	.	.	.	.	.	.
.	.	.	.	.	.	8c#X\J)	.	.	.	.	.
.	.	12gg\J	12gg\J	.	.	.	.	.	.	.	.
4D\	#	12ff#X\L	12ff#X\L	8D/	-ru(m)	8d,\	-ru(m)	8a,\	-ru(m)	8ff#X\	-rum
.	.	12gg\	12gg\	.	.	.	.	.	.	.	.
.	.	.	.	8D/	tu-	8d\	tu-	8a\	tu-	8ff#\	tu-
.	.	12ff#\J	12ff#\J	.	.	.	.	.	.	.	.
!	!	!LO:LB:g=original	!	!LO:LB:g=original	!	!	!	!	!	!LO:LB:g=original	!
=41	=41	=41	=41	=41	=41	=41	=41	=41	=41	=41	=41
2AA/	4 3#	8ee\L	8ee\L	2AA/	-o-	(4d\	-o-	2a\	-o-	2ee\	-o-
.	.	8a\J	8a\J	.	.	.	.	.	.	.	.
!	!	!LO:TX:t=P:problem:mixed beam	!LO:TX:t=P:problem:mixed beam	!	!	!	!	!	!	!	!
.	.	8a/L	8a/L	.	.	4c#X\)	.	.	.	.	.
.	.	8aa\J	8aa\J	.	.	.	.	.	.	.	.
=42	=42	=42	=42	=42	=42	=42	=42	=42	=42	=42	=42
8D/L	#	12ff#X\L	12ff#X\L	4D/	-rum	4d\	-rum	4a\	-rum	4dd\	-rum
.	.	12ee\	12ee\	.	.	.	.	.	.	.	.
8D/	.	.	.	.	.	.	.	.	.	.	.
.	.	12ff#\J	12ff#\J	.	.	.	.	.	.	.	.
8BB/	6	8dd\L	8dd\L	4r	.	4r	.	4r	.	4r	.
8GG/J	.	8dd\J	8dd\J	.	.	.	.	.	.	.	.
=43	=43	=43	=43	=43	=43	=43	=43	=43	=43	=43	=43
!	!	!	!	!LO:N:vis=00	!	!LO:N:vis=00	!	!LO:N:vis=00	!	!LO:N:vis=00	!
4C/	.	12ee\L	12ee\L	0r	.	0r	.	0r	.	0r	.
.	.	12dd\	12dd\	.	.	.	.	.	.	.	.
.	.	12ee\J	12ee\J	.	.	.	.	.	.	.	.
4D/	#	12ff#X\L	12ff#X\L	.	.	.	.	.	.	.	.
.	.	12ee\	12ee\	.	.	.	.	.	.	.	.
.	.	12ff#\J	12ff#\J	.	.	.	.	.	.	.	.
!	!	!	!LO:LB:g=original	!	!	!	!	!	!	!	!
=44	=44	=44	=44	=44	=44	=44	=44	=44	=44	=44	=44
4E\	.	12gg\L	12gg\L	.	.	.	.	.	.	.	.
.	.	12ff#X\	12ff#X\	.	.	.	.	.	.	.	.
.	.	12gg\J	12gg\J	.	.	.	.	.	.	.	.
4F#X\	.	12aa\L	12aa\L	.	.	.	.	.	.	.	.
.	.	12gg\	12gg\	.	.	.	.	.	.	.	.
.	.	12aa\J	12aa\J	.	.	.	.	.	.	.	.
=45	=45	=45	=45	=45	=45	=45	=45	=45	=45	=45	=45
4G\	.	12bb\L	12bb\L	.	.	.	.	.	.	.	.
.	.	12aa\	12aa\	.	.	.	.	.	.	.	.
.	.	12bb\J	12bb\J	.	.	.	.	.	.	.	.
4BB/	.	8dd\L	8dd\L	.	.	.	.	.	.	.	.
.	.	8gg\J	8gg\J	.	.	.	.	.	.	.	.
=46	=46	=46	=46	=46	=46	=46	=46	=46	=46	=46	=46
4C/	.	8gg\L	8gg\L	.	.	.	.	.	.	.	.
.	.	8aa\J	8gg\J	.	.	.	.	.	.	.	.
4D/	#	8dd\L	8dd\L	.	.	.	.	.	.	.	.
.	.	8ff#X\J	8ff#X\J	.	.	.	.	.	.	.	.
=47	=47	=47	=47	=47	=47	=47	=47	=47	=47	=47	=47
!LO:TX:t=P:problem:mixed beam	!	!	!	!	!	!	!	!	!	!	!
8GG/L	.	8gg\L	8gg\L	8r	.	8r	.	8r	.	8r	.
8G\	.	8dd\	8dd\	8G\	Te-	8A/	Te-	8d\	Te-	8dd\	Te-
8F#X\	6	8dd\	8dd\	8F#X\	-cum	8A,/	-cum	8d,\	-cum	8dd\	-cum
8D\J	#	8dd\J	8dd\J	8D/	prin-	8A/	prin-	8f#X\	prin-	8dd\	prin-
!LO:LB:g=original	!	!	!	!	!	!	!	!	!	!	!
=48	=48	=48	=48	=48	=48	=48	=48	=48	=48	=48	=48
!	!	!LO:TUP:b	!	!	!	!	!	!	!	!	!
4G\	.	12b/L	12b/L	8G\	-ci-	8B\	-ci-	8g\	-ci-	8dd\	-ci-
.	.	12a/	12a/	.	.	.	.	.	.	.	.
!	!	!	!	!	!	!	!	!LO:LB:g=original	!	!	!
.	.	.	.	8G\	-pi-	8B\	-pi-	8g\	-pi-	8dd\	-pi-
.	.	12b/J	12b/J	.	.	.	.	.	.	.	.
!	!	!LO:TX:t=P:problem:mixed beam	!LO:TX:t=P:problem:mixed beam	!	!	!	!	!	!	!	!
4BB/	6	8g/L	8g/L	8BB,/	-um	8B\	-um	8g,\	-um	8dd\	-um
.	.	8dd\J	8dd\J	8BB/	in	8B\	in	8g\	in	8dd\	in
=49	=49	=49	=49	=49	=49	=49	=49	=49	=49	=49	=49
4C/	6 5	12ee\L	12ee\L	4C/	di-	4c\	di-	4g\	di-	4ee\	di-
.	.	12dd\	12dd\	.	.	.	.	.	.	.	.
.	.	12ee\J	12ee\J	.	.	.	.	.	.	.	.
!	!	!LO:LB:g=original	!	!	!	!	!	!	!	!	!
!	!	!LO:TUP:b	!	!	!	!	!	!	!	!	!
4D/	#	12a/L	12a/L	8D/	-e	8B,\	-e	8f#X,\	-e	8dd,\	-e
.	.	12g/	12g/	.	.	.	.	.	.	.	.
.	.	.	.	8D/	Vir-	8A/	Vir-	8f#\	Vir-	8dd\	Vir-
.	.	12a/J	12a/J	.	.	.	.	.	.	.	.
=50	=50	=50	=50	=50	=50	=50	=50	=50	=50	=50	=50
!	!	!LO:TUP:b	!	!	!	!	!	!	!	!	!
4G\	.	12b/L	12b/L	4G\	-tu-	4B\	-tu-	4g\	-tu-	4dd\	-tu-
.	.	12a/	12a/	.	.	.	.	.	.	.	.
.	.	12b/J	12b/J	.	.	.	.	.	.	.	.
!	!	!LO:TX:t=P:problem:mixed beam	!LO:TX:t=P:problem:mixed beam	!	!	!	!	!	!	!	!
4F#X\	.	8g/L	8g/L	4F#X\	-tis	4A/	-tis	4a\	-tis	4dd\	-tis
.	.	8dd\J	8dd\J	.	.	.	.	.	.	.	.
=51	=51	=51	=51	=51	=51	=51	=51	=51	=51	=51	=51
*2\right	*	*	*	*	*	*	*	*	*	*	*
!	!	!	!	!LO:TX:t=P:problem: cauda półnuty po prawej:global	!	!	!	!	!	!	!
2E\	6|	12dd\L	12dd\L	2E\	tu-	(4B\	tu-	2g\	tu-	(4dd\	tu-
.	.	12ee\	12ee\	.	.	.	.	.	.	.	.
.	.	12dd\J	12dd\J	.	.	.	.	.	.	.	.
.	.	12cc#X\L	12cc#X\L	.	.	4e\)	.	.	.	4cc#X\)	.
.	.	12b\	12b\	.	.	.	.	.	.	.	.
.	.	12cc#\J	12cc#\J	.	.	.	.	.	.	.	.
=52	=52	=52	=52	=52	=52	=52	=52	=52	=52	=52	=52
4D/	.	4dd\	4dd\	4D,/	-ae	4A/	-ae	4f#X,\	-ae	4dd,\	-ae
!	!	!	!	!	!	!LO:LB:g=original	!	!	!	!	!
4r	.	4r	4r	8D/	In	8A/	in	8f#\	In	8dd\	in
.	.	.	.	8D/	ſplen-	8A/	ſplen-	8f#\	ſplen-	8dd\	ſplen-
!	!	!	!LO:LB:g=original	!	!	!	!	!	!	!	!
=53	=53	=53	=53	=53	=53	=53	=53	=53	=53	=53	=53
2r	.	2r	2r	8D/	-do-	8A/	-do-	8f\	-do-	8dd\	-do-
.	.	.	.	8D/	-ri-	8A/	-ri-	8f\	-ri-	8dd\	-ri-
!	!	!	!	!LO:LB:g=original	!	!	!	!	!	!	!
.	.	.	.	8D,/	-bus	8A/	-b(us)	8f,\	-b(us)	8dd\	-b(us)
.	.	.	.	8D/	ſanc-	8A/	ſanc-	8f\	ſanc-	8dd\	ſan-
!	!	!	!	!	!	!	!	!	!	!LO:LB:g=original	!
=54	=54	=54	=54	=54	=54	=54	=54	=54	=54	=54	=54
8r	.	8r	8r	8D/	-to-	8A/	-to-	8f\	-to-	8dd\	-cto-
8D/L	#	8d/L	8d/L	8D/	-rum	8A/	-ru(m)	8f\	-ru(m)	8dd\	-ru(m)
8BB/	6	8d/	8d/	8r	.	8r	.	8r	.	8r	.
!	!	!	!	!	!	!	!	!LO:TX:t=P:problem: ćwierćnuta	!	!	!
8GG/J	.	8d/J	8d/J	8GG/	ex	8B\	ex	8g\	ex	8dd\	ex
=55	=55	=55	=55	=55	=55	=55	=55	=55	=55	=55	=55
!	!	!LO:TUP:b	!LO:TUP:b	!	!	!	!	!	!	!	!
4C/	.	12e/L	12e/L	4C/	U-	4c\	u-	4g\	u-	4ee\	U-
.	.	12d/	12d/	.	.	.	.	.	.	.	.
.	.	12e/J	12e/J	.	.	.	.	.	.	.	.
!	!	!LO:TUP:b	!LO:TUP:b	!	!	!	!	!	!	!	!
4D/	.	12f#X/L	12f#X/L	8D/	-te-	8B\	-te-	8f#X\	-te-	8dd\	-te-
.	.	12e/	12e/	.	.	.	.	.	.	.	.
.	.	.	.	8D/	-ro	8A/	-ro	8f#,\	-ro	8dd\	-ro
.	.	12f#/J	12f#/J	.	.	.	.	.	.	.	.
=56	=56	=56	=56	=56	=56	=56	=56	=56	=56	=56	=56
!	!	!LO:TUP:b	!LO:TUP:b	!	!	!	!	!	!	!	!
4E\	6	12g/L	12g/L	4E\	an-	4G/	an-	4g\	an-	4cc\	an-
.	.	12f#X/	12f#X/	.	.	.	.	.	.	.	.
.	.	12g/J	12g/J	.	.	.	.	.	.	.	.
!	!	!LO:TUP:b	!LO:TUP:b	!	!	!	!	!	!	!	!
4F#X\	6 5	12a/L	12a/L	8F#X\	-te	8A/	-te	8d\	-te	8cc\	-te
.	.	12g/	12g/	.	.	.	.	.	.	.	.
.	.	.	.	8F#\	lu-	8A/	lu-	8d\	lu-	8b\	lu-
.	.	12a/J	12a/J	.	.	.	.	.	.	.	.
!	!	!	!	!	!	!	!	!LO:LB:g=original	!	!	!
=57	=57	=57	=57	=57	=57	=57	=57	=57	=57	=57	=57
*	*	*Xtuplet	*	*	*	*	*	*	*	*	*
!	!	!LO:TX:t=P:problvem:brak oznaczenia trioli	!LO:TUP:b	!	!	!	!	!	!	!	!
4G\	.	12b/L	12b/L	4G\	-ci-	4G/	-ci-	4d\	-ci-	4cc\	-ci-
.	.	12a/	12a/	.	.	.	.	.	.	.	.
.	.	12b/J	12b/J	.	.	.	.	.	.	.	.
*	*	*tuplet	*	*	*	*	*	*	*	*	*
!	!	!LO:TX:t=P:problem:mixed beam	!LO:TX:t=P:problem:mixed beam	!	!	!	!	!	!	!	!
4C/	.	8g/L	8g/L	8C/	-fe-	8G/	-fe-	8e\	-fe-	8ee\	-fe-
.	.	8dd\J	8dd\J	8C/	-ru(m)	8G/	-ru(m)	8e,\	-rum	8ee\	-rum
!	!	!LO:LB:g=original	!	!	!	!	!	!	!	!	!
=58	=58	=58	=58	=58	=58	=58	=58	=58	=58	=58	=58
!	!	!LO:TUP:b	!LO:TUP:b	!	!	!	!	!	!	!	!
4D/	.	12a/L	12a/L	4D/	ge-	4G/	ge-	4d\	ge-	4a\	ge-
.	.	12b/	12b/	.	.	.	.	.	.	.	.
.	.	12a/J	12a/J	.	.	.	.	.	.	.	.
4DD/	4	12dd\L	12dd\L	8D/	-nu-	8F#X/	-nu-	8d\	-nu-	8a\	-nu-
.	3#	12ee\	12ee\	.	.	.	.	.	.	.	.
.	.	.	.	8D/	-i-	8F#/	-i	8d\	-i	8a\	-i
.	.	12dd\J	12dd\J	.	.	.	.	.	.	.	.
=59	=59	=59	=59	=59	=59	=59	=59	=59	=59	=59	=59
4GG/	.	8b\	8b\	8GG/	-te	8G/	te	8d\	te	8b\	te
!	!	!	!	!	!	!LO:LB:g=original	!	!	!	!	!
.	.	8r	8r	8r	.	8D/	Ju-	8r	.	8r	.
8r	.	4r	4r	4r	.	8G/	-ra-	4r	.	4r	.
!LO:TX:t=P:problem: Tenore=Tonere	!	!	!	!	!	!	!	!	!	!	!
!LO:TX:b:i:t=Tonere solo	!	!	!	!	!	!	!	!	!	!	!
8D/	#	.	.	.	.	8A/	-vit	.	.	.	.
=60	=60	=60	=60	=60	=60	=60	=60	=60	=60	=60	=60
!	!	!	!	!LO:N:vis=00	!	!	!	!LO:N:vis=00	!	!LO:N:vis=00	!
4G\	.	8r	8r	0r	.	8B\	Do-	0r	.	0r	.
.	.	8d/L	8d/L	.	.	8B\	-mi-	.	.	.	.
8r	.	8g/	8g/	.	.	4A/	-n(us)	.	.	.	.
8D/	#	8a/J	8a/J	.	.	.	.	.	.	.	.
!LO:LB:g=original	!	!	!	!	!	!	!	!	!	!	!
=61	=61	=61	=61	=61	=61	=61	=61	=61	=61	=61	=61
4GG/	.	12b\L	12b\L	.	.	8r	.	.	.	.	.
.	.	12cc\	12cc\	.	.	.	.	.	.	.	.
.	.	.	.	.	.	8D/	Ju-	.	.	.	.
.	.	12dd\J	12dd\J	.	.	.	.	.	.	.	.
8r	.	8d/L	8d/L	.	.	8G/	-ra-	.	.	.	.
8D/	#	8f#X/J	8f#X/J	.	.	8A/	-vit	.	.	.	.
=62	=62	=62	=62	=62	=62	=62	=62	=62	=62	=62	=62
4G\	.	8g/	8g/	.	.	8B\	Do-	.	.	.	.
!	!	!	!LO:LB:g=original	!	!	!	!	!	!	!	!
.	.	8r	8r	.	.	8B\	-mi-	.	.	.	.
8r	.	4r	4r	.	.	8A/	-n(us)	.	.	.	.
8D/	#	.	.	.	.	8d\	et	.	.	.	.
=63	=63	=63	=63	=63	=63	=63	=63	=63	=63	=63	=63
!	!	!LO:N:vis=00	!LO:N:vis=00	!	!	!	!	!	!	!	!
8E\L	.	0r	0r	.	.	4G/	non	.	.	.	.
8D\J	.	.	.	.	.	.	.	.	.	.	.
8E\L	.	.	.	.	.	8r	.	.	.	.	.
8C\J	.	.	.	.	.	8e\	{et	.	.	.	.
=64	=64	=64	=64	=64	=64	=64	=64	=64	=64	=64	=64
!	!	!	!	!LO:N:vis=0	!	!	!	!LO:N:vis=00	!	!LO:N:vis=00	!
8D/L	#	.	.	1r	.	4A\	non}	0r	.	0r	.
8C/	.	.	.	.	.	.	.	.	.	.	.
8D/	.	.	.	.	.	8r	.	.	.	.	.
8BB/J	.	.	.	.	.	8d\	{et	.	.	.	.
=65	=65	=65	=65	=65	=65	=65	=65	=65	=65	=65	=65
8C/L	.	.	.	.	.	4G/	non}	.	.	.	.
8BB/	.	.	.	.	.	.	.	.	.	.	.
8C/	.	.	.	.	.	8c\	pe-	.	.	.	.
8AA/J	.	.	.	.	.	8c\	-ni-	.	.	.	.
=66	=66	=66	=66	=66	=66	=66	=66	=66	=66	=66	=66
8D/L	#	.	.	2r	.	8c\	-te-	.	.	.	.
!	!	!	!	!	!	!LO:LB:g=original	!	!	!	!	!
8GG/	.	.	.	.	.	(16B\LL	-bit	.	.	.	.
.	.	.	.	.	.	16A\JJ)	.	.	.	.	.
8D/	#	.	.	.	.	4A/	e-	.	.	.	.
8DD/J	.	.	.	.	.	.	.	.	.	.	.
!	!	!	!	!LO:LB:g=original	!	!	!	!	!	!	!
=67	=67	=67	=67	=67	=67	=67	=67	=67	=67	=67	=67
!LO:TX:t=P:problem:mixed beam	!	!	!	!	!	!	!	!	!	!	!
8GG/L	.	8r	8r	8r	.	8G/	-um	.	.	.	.
8G\J	.	8g/	8g/	8G\	Tu	8r	.	.	.	.	.
!LO:TX:t=P:problem: wysokość niewyraźna, nad nutą dopisana litera e	!	!	!	!	!	!	!	!	!	!	!
8E\L	.	8g/L	8g/L	8E\	es	4r	.	.	.	.	.
8C\J	.	8g/J	8g/J	8C/	sa-	.	.	.	.	.	.
=68	=68	=68	=68	=68	=68	=68	=68	=68	=68	=68	=68
!	!	!	!LO:TUP:b	!	!	!LO:N:vis=00	!	!LO:N:vis=00	!	!LO:N:vis=0	!
4F\	.	12a/L	12a/L	8F\	-cer-	0r	.	0r	.	0r	.
.	.	12g/	12g/	.	.	.	.	.	.	.	.
.	.	.	.	8F\	-dos	.	.	.	.	.	.
.	.	12a/J	12a/J	.	.	.	.	.	.	.	.
!	!	!	!LO:TUP:b	!	!	!	!	!	!	!	!
4G\	.	12b/L	12b/L	8G\	in	.	.	.	.	.	.
.	.	12a/	12a/	.	.	.	.	.	.	.	.
.	.	.	.	8G\	ae-	.	.	.	.	.	.
.	.	12b/J	12b/J	.	.	.	.	.	.	.	.
=69	=69	=69	=69	=69	=69	=69	=69	=69	=69	=69	=69
4A\	.	12cc\L	12cc\L	4A\	-ter-	.	.	.	.	.	.
.	.	12b\	12b\	.	.	.	.	.	.	.	.
.	.	12cc\J	12cc\J	.	.	.	.	.	.	.	.
4B\	.	12dd\L	12dd\L	8B\	-nu(m)	.	.	.	.	.	.
.	.	12cc\	12cc\	.	.	.	.	.	.	.	.
.	.	.	.	8B\	ſe-	.	.	.	.	.	.
.	.	12dd\J	12dd\J	.	.	.	.	.	.	.	.
=70	=70	=70	=70	=70	=70	=70	=70	=70	=70	=70	=70
4c\	.	12ee\L	12ee\L	8c\	-cun-	.	.	.	.	.	.
.	.	12ff\	12ff\	.	.	.	.	.	.	.	.
.	.	.	.	8c\	-du(m)	.	.	.	.	.	.
.	.	12gg\J	12gg\J	.	.	.	.	.	.	.	.
!	!	!LO:LB:g=original	!	!	!	!	!	!	!	!	!
!	!	!LO:TX:t=P:problem:mixed beam	!	!	!	!	!	!	!	!	!
4E\	6	8g/L	8g/L	8E\	or-	.	.	.	.	.	.
.	.	8cc\J	8cc/J	8E\	-di-	.	.	.	.	.	.
=71	=71	=71	=71	=71	=71	=71	=71	=71	=71	=71	=71
4F\	6 5	12cc\L	12cc\L	8F\	-nem	.	.	.	.	.	.
.	.	12dd\	12dd\	.	.	.	.	.	.	.	.
.	.	.	.	8D/	Mel-	.	.	.	.	.	.
.	.	12cc\J	12cc\J	.	.	.	.	.	.	.	.
!LO:LB:g=original	!	!LO:TUP:b	!LO:TUP:b	!	!	!	!	!	!	!	!
4G\	.	12b/L	12b/L	8G\	-chi-	.	.	.	.	.	.
.	.	12a/	12a/	.	.	.	.	.	.	.	.
.	.	.	.	8GG/	-se-	.	.	.	.	.	.
.	.	12b/J	12b/J	.	.	.	.	.	.	.	.
=72	=72	=72	=72	=72	=72	=72	=72	=72	=72	=72	=72
!	!	!	!	!	!	!LO:N:vis=0	!	!LO:N:vis=0	!	!LO:N:vis=0	!
4C/	.	8cc\L	8cc\L	4C/	-dech	1r	.	1r	.	1r	.
.	.	8g\J	8g\J	.	.	.	.	.	.	.	.
8r	.	8cc\L	8cc\L	4ryy	.	.	.	.	.	.	.
8G\	6	8dd\J	8dd\J	.	.	.	.	.	.	.	.
=73	=73	=73	=73	=73	=73	=73	=73	=73	=73	=73	=73
4c\	.	12ee\L	12ee\L	2r	.	.	.	.	.	.	.
.	.	12ff\	12ff\	.	.	.	.	.	.	.	.
.	.	12gg\J	12gg\J	.	.	.	.	.	.	.	.
8r	.	8g/L	8f/L	.	.	.	.	.	.	.	.
8G\	.	8b/J	8b/J	.	.	.	.	.	.	.	.
!	!	!	!	!LO:LB:g=original	!	!	!	!	!	!	!
=74	=74	=74	=74	=74	=74	=74	=74	=74	=74	=74	=74
!LO:TX:t=P:problem:mixed beam	!	!	!	!	!	!	!	!	!	!	!
8C/L	.	8cc\L	8cc\	8C/	Do-	8G/	Do-	8e\	Do-	8cc\	Do-
!LO:TX:b:i:t=Tut	!	!	!LO:LB:g=original	!	!	!	!	!	!	!	!
8c\	.	8gg\	8gg\L	8c\	-mi-	8G/	-mi-	8e\	-mi-	8cc\	-mi-
8B\	.	8gg\	8gg\	8B\	-nus	8G/	-n(us)	8g\	-nus	8dd\	-n(us)
8G\J	.	8gg\J	8gg\J	8G\	a	8G/	a	8g\	a	8dd\	a
=75	=75	=75	=75	=75	=75	=75	=75	=75	=75	=75	=75
!	!	!LO:TX:t=P:problem:mixed beam	!LO:TX:t=P:problem:mixed beam	!	!	!	!	!	!	!	!
4c\	.	8gg\L	8gg\L	4c\	dex-	4c\	dex-	4g\	dex-	4ee\	dex-
.	.	8g/	8g/	.	.	.	.	.	.	.	.
!	!	!	!	!	!	!	!	!	!	!LO:LB:g=original	!
4E\	6	8g/	8g/	4E\	-tris	4c\	-tris	4g,\	-tris	4cc\	-tris
.	.	8g/J	8g/J	.	.	.	.	.	.	.	.
=76	=76	=76	=76	=76	=76	=76	=76	=76	=76	=76	=76
!	!	!	!LO:TUP:b	!	!	!	!	!	!	!	!
4F\	6 5	12a/L	12a/L	(4F\	tu-	4A/	tu-	4a\	tu-	(4cc\	tu-
.	.	12g/	12g/	.	.	.	.	.	.	.	.
.	.	12a/J	12a/J	.	.	.	.	.	.	.	.
!	!	!	!LO:TUP:b	!	!	!	!	!	!	!	!
4G\	.	12b/L	12b/L	4G\)	.	4G/	.	4g\	-is	4b\)	.
.	.	12a/	12a/	.	.	.	.	.	.	.	.
.	.	12b/J	12b/J	.	.	.	.	.	.	.	.
=77	=77	=77	=77	=77	=77	=77	=77	=77	=77	=77	=77
4C/	.	8cc\L	8cc\L	4C/	-is	4G/	-is	4g\	Con-	4cc\	-is
.	.	8cc\J	8cc\J	.	.	.	.	.	.	.	.
8r	.	12cc\L	12cc\L	8r	.	8r	.	8r	.	8r	.
.	.	12dd\	12dd\	.	.	.	.	.	.	.	.
8E\	6	.	.	8D\	Con-	8c\	Con-	8g\	-fre-	8cc\	Con-
.	.	12cc\J	12cc\J	.	.	.	.	.	.	.	.
=78	=78	=78	=78	=78	=78	=78	=78	=78	=78	=78	=78
4F\	.	8cc\L	8cc\L	4F\	-fre-	4A\	-fre-	4a\	.	4cc\	-fre-
.	.	8cc\J	8cc\J	.	.	.	.	.	.	.	.
8r	.	12cc\L	12cc\L	8r	.	8r	.	8r	.	8r	.
.	.	12dd\	12dd\	.	.	.	.	.	.	.	.
8E\	6	.	.	8E\	.	8c\	.	(8g\	.	8cc\	.
.	.	12cc\J	12cc\J	.	.	.	.	.	.	.	.
=79	=79	=79	=79	=79	=79	=79	=79	=79	=79	=79	=79
4F\	.	8cc\L	8cc\L	4F\	.	4A\	.	4a\)	.	4cc\	.
.	.	8ff\J	8ff\J	.	.	.	.	.	.	.	.
8r	.	12ff\L	12ff\L	8r	.	8r	.	8r	.	8r	.
.	.	12gg\	12gg\	.	.	.	.	.	.	.	.
8AA/	6	.	.	(8B\	.	8c\	.	[8f\	.	8ff\	.
.	.	12ff\J	12ff\J	.	.	.	.	.	.	.	.
!	!	!LO:LB:g=original	!	!	!	!	!	!LO:LB:g=original	!	!	!
=80	=80	=80	=80	=80	=80	=80	=80	=80	=80	=80	=80
4BB-X/	.	8ff\L	8ff\L	4B-X\)	.	4d\	.	4f\]	.	4dd\	.
.	.	8ff\J	8ff\J	.	.	.	.	.	.	.	.
8r	.	12ff\L	12ff\L	8r	.	8r	.	8r	.	8r	.
.	.	12gg\	12gg\	.	.	.	.	.	.	.	.
8AA/	6	.	.	8A\	.	(8c\	.	8f\	.	8ff\	.
.	.	12ff\J	12ff\J	.	.	.	.	.	.	.	.
!	!	!	!	!	!	!LO:LB:g=original	!	!	!	!	!
=81	=81	=81	=81	=81	=81	=81	=81	=81	=81	=81	=81
4BB-X/	.	8ff\L	8ff\L	4B-X\	.	4d\)	.	4f\	.	4dd\	.
.	.	8ff\J	8ff\J	.	.	.	.	.	.	.	.
4AA/	6	12ff\L	12ff\L	8A,\	-git	8c,\	-git	8f,\	-git	8ff,\	-git
.	.	12gg\	12gg\	.	.	.	.	.	.	.	.
.	.	.	.	8A\	in	8c\	in	8f\	in	8ff\	in
.	.	12ff\J	12ff\J	.	.	.	.	.	.	.	.
=82	=82	=82	=82	=82	=82	=82	=82	=82	=82	=82	=82
4BB-X/	.	8ff\L	8ff\L	4B-X\	di-	4d\	di-	4f\	di-	4dd\	di-
.	.	8ff\J	8ff\J	.	.	.	.	.	.	.	.
!	!	!	!	!LO:LB:g=original	!	!	!	!	!	!	!
4AA/	6	12ff\L	12ff\L	4A\	-ae	4A/	-e	4f\	-e	4cc\	-e
.	.	12gg\	12gg\	.	.	.	.	.	.	.	.
.	.	12ff\J	12ff\J	.	.	.	.	.	.	.	.
!LO:LB:g=original	!	!	!LO:LB:g=original	!	!	!	!	!	!	!	!
=83	=83	=83	=83	=83	=83	=83	=83	=83	=83	=83	=83
4GG/	-	12bb\L	12bb-X\L	8G\	i-	8G/	i-	8d\	i-	8b-X\	i-
.	.	12aa\	12aa\	.	.	.	.	.	.	.	.
.	.	.	.	8G\	-rae	8G,/	-rae	8e\	-rae-	8b-\	-rae
.	.	12gg\J	12gg\J	.	.	.	.	.	.	.	.
4FF/	.	12aa\L	12aa\L	8F\	su-	8A/	su-	8f\	-su-	8a\	ſu-
.	.	12gg\	12gg\	.	.	.	.	.	.	.	.
.	.	.	.	8F\	-ae	8A,/	-ae	8f\	-ae	8a\	-ae
.	.	12ff\J	12ff\J	.	.	.	.	.	.	.	.
=84	=84	=84	=84	=84	=84	=84	=84	=84	=84	=84	=84
4C/	.	8ff\L	8ff\L	2C/	Re-	2c\	Re-	(4f\	Re-	2g/	re-
.	.	8gg\	8gg\	.	.	.	.	.	.	.	.
4CC/	.	8cc\	8cc\	.	.	.	.	4e\)	.	.	.
.	.	8ee\J	8ee\J	.	.	.	.	.	.	.	.
=85	=85	=85	=85	=85	=85	=85	=85	=85	=85	=85	=85
4FF/	.	8ff\	8ff\	8F\	-ges	4d\	-ges	4f,\	-ges	4a\	-ges
.	.	8r	8r	8r	.	.	.	.	.	.	.
8r	.	4r	4r	4r	.	4r	.	8f\	Iu-	4r	.
!LO:TX:b:i:t=Tenor	!	!	!	!	!	!	!	!	!	!	!
8C/	.	.	.	.	.	.	.	8g\	-di-	.	.
!	!	!	!	!	!	!	!	!	!	!LO:LB:g=original	!
=86	=86	=86	=86	=86	=86	=86	=86	=86	=86	=86	=86
!	!	!	!	!LO:N:vis=00	!	!LO:N:vis=00	!	!	!	!LO:N:vis=00	!
4F\	.	8r	8r	0r	.	0r	.	8a\	-ca-	0r	.
.	.	8c/	8c/	.	.	.	.	8f\	-bit	.	.
8r	.	8f/L	8f/L	.	.	.	.	4r	.	.	.
8C/	.	8g/J	8g/J	.	.	.	.	.	.	.	.
=87	=87	=87	=87	=87	=87	=87	=87	=87	=87	=87	=87
!	!	!LO:TUP:b	!LO:TUP:b	!	!	!	!	!	!	!	!
4FF/	.	12a/L	12a/L	.	.	.	.	4r	.	.	.
.	.	12b-X/	12b-X/	.	.	.	.	.	.	.	.
.	.	12cc/J	12cc/J	.	.	.	.	.	.	.	.
8r	.	8c/L	8c/L	.	.	.	.	8f\	Iu-	.	.
8C/	.	8d/J	8d/J	.	.	.	.	8g\	-di-	.	.
=88	=88	=88	=88	=88	=88	=88	=88	=88	=88	=88	=88
4F\	.	4f/	4f/	.	.	.	.	4a\	-ca-	.	.
8r	.	4r	4r	.	.	.	.	8g,\	-bit	.	.
8C/	.	.	.	.	.	.	.	8g\	in	.	.
=89	=89	=89	=89	=89	=89	=89	=89	=89	=89	=89	=89
!	!	!	!LO:TX:b:t=Cito verte	!	!	!	!	!	!	!	!
8D/L	.	2r	2r	.	.	.	.	4.f\	na-	.	.
8C/	.	.	.	.	.	.	.	.	.	.	.
8BB/	6 5	.	.	.	.	.	.	.	.	.	.
!	!	!	!	!	!	!	!	!LO:LB:g=original	!	!	!
8GG/J	.	.	.	.	.	.	.	8g\	-ti-	.	.
!	!	!LO:LB:g=original	!LO:LB:g=original	!	!	!	!	!	!	!	!
=90	=90	=90	=90	=90	=90	=90	=90	=90	=90	=90	=90
!	!	!	!	!LO:N:vis=00	!	!LO:N:vis=00	!	!	!	!LO:N:vis=00	!
8C/L	.	4r	4r	0r	.	0r	.	8e\	-o-	0r	.
8D/	.	.	.	.	.	.	.	16d\LL	-ni-	.	.
.	.	.	.	.	.	.	.	16e\JJ	.	.	.
8E/	.	8r	8r	.	.	.	.	8c,/	-bus	.	.
8C/J	.	8e/	8e/	.	.	.	.	8g\	im-	.	.
=91	=91	=91	=91	=91	=91	=91	=91	=91	=91	=91	=91
*	*	*	*	*Xtuplet	*	*	*	*Xtuplet	*	*	*
!	!	!	!	!	!	!	!	!LO:TX:a:t=P:problem:brak oznaczenia trioli:global	!	!	!
4F\	.	12f/L	12f/L	.	.	.	.	12a\L	-ple-	.	.
.	.	12g/	12g/	.	.	.	.	12b\	.	.	.
.	.	12f/J	12f/J	.	.	.	.	12a\J	.	.	.
4C/	.	12e/L	12e/L	.	.	.	.	12g\L	.	.	.
.	.	12f/	12f/	.	.	.	.	12a\	.	.	.
.	.	12e/J	12e/J	.	.	.	.	12g\J	.	.	.
=92	=92	=92	=92	=92	=92	=92	=92	=92	=92	=92	=92
4F\	.	12f/L	12f/L	.	.	.	.	12a\L	.	.	.
.	.	12g/	12g/	.	.	.	.	12b\	.	.	.
.	.	12f/J	12f/J	.	.	.	.	12a\J	.	.	.
4C/	.	12e/L	12e/L	.	.	.	.	12g\L	.	.	.
.	.	12f/	12f/	.	.	.	.	12a\	.	.	.
.	.	12e/J	12e/J	.	.	.	.	12g\J	.	.	.
=93	=93	=93	=93	=93	=93	=93	=93	=93	=93	=93	=93
8D/L	.	4f/	4f/	.	.	.	.	4f\	.	.	.
8C/J	.	.	.	.	.	.	.	.	.	.	.
8D/L	.	8r	8r	.	.	.	.	8f\	-bit	.	.
8AA/J	6	8cc\	8cc\	.	.	.	.	8f\	ru-	.	.
!LO:LB:g=original	!	!	!	!	!	!	!	!	!	!	!
=94	=94	=94	=94	=94	=94	=94	=94	=94	=94	=94	=94
8BB-X/L	.	12dd\L	12dd\L	2r	.	2r	.	(4f\	-i-	2r	.
.	.	12ee\	12ee\	.	.	.	.	.	.	.	.
8GG/	.	.	.	.	.	.	.	.	.	.	.
.	.	12dd\J	12dd\J	.	.	.	.	.	.	.	.
8C/	.	12cc\L	12cc\L	.	.	.	.	4e\)	.	.	.
.	.	12dd\	12dd\	.	.	.	.	.	.	.	.
8CC/J	.	.	.	.	.	.	.	.	.	.	.
.	.	12cc\J	12cc\J	.	.	.	.	.	.	.	.
=95	=95	=95	=95	=95	=95	=95	=95	=95	=95	=95	=95
4FF/	.	8a/L	8a/L	4r	.	4r	.	4f,\	-nas	4r	.
.	.	8cc/	8cc/	.	.	.	.	.	.	.	.
8F\L	.	8cc/	8cc/	8F\	Con-	8r	.	8f\	Con-	8cc\	Con-
8E\J	6	8cc/J	8cc/J	8E\	-qua-	16A/	Con-	8g\	-qua-	8cc\	-qua-
.	.	.	.	.	.	16c\	-qua-	.	.	.	.
=96	=96	=96	=96	=96	=96	=96	=96	=96	=96	=96	=96
!	!	!LO:TX:t=P:problem:mixed beam	!LO:TX:t=P:problem:mixed beam	!	!	!	!	!	!	!	!
4F\	.	8ff\L	8ff\L	4F\	-ſa-	4A/	-ſa-	4a\	-ſa-	4cc\	-ſa-
.	.	8f/	8f/	.	.	.	.	.	.	.	.
4AA/	6	8f/	8f/	4AA/	-bit	4A/	-bit	4f\	-bit	4cc\	-bit
.	.	8f/J	8f/J	.	.	.	.	.	.	.	.
=97	=97	=97	=97	=97	=97	=97	=97	=97	=97	=97	=97
4BB-X/	6 5	12f/L	12f/L	4BB-X/	Ca-	4G/	Ca-	4f\	Ca-	4.dd\	Ca-
.	.	12g/	12g/	.	.	.	.	.	.	.	.
.	.	12f/J	12f/J	.	.	.	.	.	.	.	.
4C/	.	8c/L	8c/L	4C/	-pi-	4G/	-pi-	4e\	-pi-	.	.
.	.	8e/J	8e/J	.	.	.	.	.	.	8cc\	-pi-
=98	=98	=98	=98	=98	=98	=98	=98	=98	=98	=98	=98
4FF/	.	8f/L	8f/L	4FF/	-ta	4A/	-ta	4f\	-ta	4cc\	-ta
.	.	8d/	8d/	.	.	.	.	.	.	.	.
8r	.	8f/	8f/	4r	.	4r	.	4r	.	4r	.
!LO:TX:b:i:t=Vio	!	!	!	!	!	!	!	!	!	!	!
8C/	.	8g/J	8g/J	.	.	.	.	.	.	.	.
!	!	!LO:LB:g=original	!LO:LB:g=original	!	!	!	!	!	!	!	!
=99	=99	=99	=99	=99	=99	=99	=99	=99	=99	=99	=99
!	!	!LO:TUP:b	!	!LO:N:vis=0	!	!LO:N:vis=0	!	!LO:N:vis=0	!	!LO:N:vis=0	!
4F\	.	12a/L	12a/L	1r	.	1r	.	1r	.	1r	.
.	.	12b-X/	12b-X/	.	.	.	.	.	.	.	.
.	.	12cc/J	12cc/J	.	.	.	.	.	.	.	.
8r	.	8c/L	8c/L	.	.	.	.	.	.	.	.
8C/	.	8d/J	8d/J	.	.	.	.	.	.	.	.
=100	=100	=100	=100	=100	=100	=100	=100	=100	=100	=100	=100
4FF/	.	8f/L	8f/L	.	.	.	.	.	.	.	.
.	.	8a/J	8a/J	.	.	.	.	.	.	.	.
8r	.	8dd\L	8dd\L	.	.	.	.	.	.	.	.
8AA/	#	8ee\J	8ee\J	.	.	.	.	.	.	.	.
=101	=101	=101	=101	=101	=101	=101	=101	=101	=101	=101	=101
4D/	.	12ff\L	12ff\L	2r	.	2r	.	2r	.	2r	.
.	.	12gg\	12gg\	.	.	.	.	.	.	.	.
.	.	12aa\J	12aa\J	.	.	.	.	.	.	.	.
8r	.	8a\L	8a/L	.	.	.	.	.	.	.	.
8AA/	#	8cc#X\J	8cc#X/J	.	.	.	.	.	.	.	.
=102	=102	=102	=102	=102	=102	=102	=102	=102	=102	=102	=102
4DD/	.	8dd\L	8dd\L	4r	.	4r	.	4r	.	4r	.
.	.	8aa\	8aa\	.	.	.	.	.	.	.	.
!LO:TX:b:i:t=Tutti	!	!	!	!	!	!	!	!	!	!	!
8D/L	.	8aa\	8aa\	8d\	Cpn-	8A/	Con-	8f\	Con-	8dd\	Con-
8C#X/J	.	8aa\J	8aa\J	8c\	-qua-	8A/	-qua-	8a\	-qua-	8ee\	-qua-
!	!	!	!	!LO:LB:g=original	!	!LO:LB:g=original	!	!LO:LB:g=original	!	!	!
=103	=103	=103	=103	=103	=103	=103	=103	=103	=103	=103	=103
4D\	.	8aa\L	8aa\L	4d\	-ſa-	4A/	-ſa-	4f\	-ſa-	4ff\	-ſa-
.	.	8dd\	8dd\	.	.	.	.	.	.	.	.
!	!	!	!	!LO:TX:t=P:problem: nad nutą litera f	!	!	!	!	!	!	!
4F\	6	8dd\	8dd\	4F\	-bit	4A/	-bit	4f\	-bit	4dd\	-bit
.	.	8dd\J	8dd\J	.	.	.	.	.	.	.	.
=104	=104	=104	=104	=104	=104	=104	=104	=104	=104	=104	=104
4G\	6 5	12dd\L	12dd\L	4G\	Ca-	4B\	Ca-	4.e\	Ca-	4.dd\	Ca-
.	.	12ee\	12ee\	.	.	.	.	.	.	.	.
.	.	12dd\J	12dd\J	.	.	.	.	.	.	.	.
4A\	#	8a#X/L	8a/L	4A\	-pi-	4A/	-pi-	.	.	.	.
.	.	8cc#y/J	8cc#X/J	.	.	.	.	8e\	-pi-	8cc#X\	-pi-
!LO:LB:g=original	!	!	!	!	!	!	!	!	!	!	!
=105	=105	=105	=105	=105	=105	=105	=105	=105	=105	=105	=105
4D\	.	8dd\L	8dd\L	4D/	-ta	4A/	-ta	4d\	-ta	4dd\	-ta
.	.	8ff\	8ff\	.	.	.	.	.	.	.	.
8r	.	8ff\	8ff\	8r	.	8r	.	8r	.	8r	.
8d\	.	8ff\J	8ff\J	8d\	in	8A/	in	8f\	in	8dd\	in
=106	=106	=106	=106	=106	=106	=106	=106	=106	=106	=106	=106
8B\L	6 5	12gg\L	12gg\L	8B\	ter-	(8d\L	ter-	4d\	ter-	4gg\	ter-
.	.	12aa\	12aa\	.	.	.	.	.	.	.	.
8G\	.	.	.	8G\	.	8B\J)	.	.	.	.	.
.	.	12gg\J	12gg\J	.	.	.	.	.	.	.	.
8c\	.	8ee\L	8ee\L	8c\	-ra	8c,\	-ra	8g,\	-ra	8ee,\	-ra
8E\J	.	8cc\J	8cc\J	8E\	mul-	8c\	mul-	8g\	mul-	8ee\	mul-
=107	=107	=107	=107	=107	=107	=107	=107	=107	=107	=107	=107
!LO:TX:t=P:problem:mixed beam	!	!	!	!LO:TX:t=P:problem:mixed beam	!	!	!	!	!	!	!
8F\L	.	12ff\L	12ff\L	8F\L	-to-	(4c\	-to-	4a\	-to-	2dd\	-to-
.	.	12ee\	12ee\	.	.	.	.	.	.	.	.
8D\	.	.	.	8D\	.	.	.	.	.	.	.
.	.	12ff\J	12ff\J	.	.	.	.	.	.	.	.
!	!	!	!LO:LB:g=original	!	!	!	!	!	!	!	!
8G\	.	12dd\L	12dd\L	8G\	.	4B\)	.	4g\	.	.	.
.	.	12cc\	12cc\	.	.	.	.	.	.	.	.
8GG/J	.	.	.	8GG/J	.	.	.	.	.	.	.
.	.	12dd\J	12dd\J	.	.	.	.	.	.	.	.
!	!	!LO:LB:g=original	!	!	!	!	!	!	!	!	!
=108	=108	=108	=108	=108	=108	=108	=108	=108	=108	=108	=108
4C/	.	8ee\	8ee\	4C/	-rum	4c\	-rum	4g\	-rum	4cc\	-ru(m)
.	.	8r	8r	.	.	.	.	.	.	.	.
8r	.	4r	4r	4r	.	4r	.	4r	.	8cc\	De
!LO:TX:b:i:t=Solo	!	!	!	!	!	!	!	!	!	!LO:LB:g=original	!
8G\	.	.	.	.	.	.	.	.	.	8dd\	tor-
=109	=109	=109	=109	=109	=109	=109	=109	=109	=109	=109	=109
4c\	.	8r	8r	2r	.	2r	.	2r	.	8ee\	-ren-
.	.	8g/	8g/	.	.	.	.	.	.	16ff,\	-te
.	.	.	.	.	.	.	.	.	.	16gg\	in
8r	.	8cc\L	8cc\L	.	.	.	.	.	.	8g/	Vi-
8G\	.	8dd\J	8dd\J	.	.	.	.	.	.	8b,\	-a
=110	=110	=110	=110	=110	=110	=110	=110	=110	=110	=110	=110
4C/	.	12ee\L	12ee\L	4r	.	4r	.	4r	.	8cc\	bi-
.	.	12ff\	12ff\	.	.	.	.	.	.	.	.
.	.	.	.	.	.	.	.	.	.	8cc\	-bet
.	.	12gg\J	12gg\J	.	.	.	.	.	.	.	.
8r	.	8g/L	8g/L	8r	.	8r	.	8r	.	4r	.
8G\	.	8b/J	8b/J	8G\	pro-	8B\	prop-	8d\	pro-	.	.
=111	=111	=111	=111	=111	=111	=111	=111	=111	=111	=111	=111
4c\	.	4cc\	4cc\	8.c\	-pte-	8.c\	-ter-	8.e\	-pte-	2r	.
.	.	.	.	16c\	-re-	16c\	-e-	16e\	-re-	.	.
8r	.	4r	4r	8c,\	-a	8c\	-a	8e,\	-a	.	.
8G\	.	.	.	8G\	pro-	8B\	pro-	8d\	pro-	.	.
=112	=112	=112	=112	=112	=112	=112	=112	=112	=112	=112	=112
4C/	.	8r	8r	8C/	-pte-	8.c\	-pter-	8.e\	-pte-	4r	.
.	.	8g/L	8g/L	16C/	-re-	.	.	.	.	.	.
.	.	.	.	16C/	-a	16c\	-e-	16e\	-re-	.	.
!	!	!	!	!LO:LB:g=original	!	!	!	!	!	!	!
8r	.	8g/	8g/	8E\	ex-	8c\	-a	8e\	-a	8g/	ex-
8E\	6	8g/J	8g/J	8E\	-al-	8r	.	8r	.	8g/	-al-
=113	=113	=113	=113	=113	=113	=113	=113	=113	=113	=113	=113
!	!	!LO:TUP:b	!LO:TUP:b	!LO:TX:a:t=P:problem:brak oznaczenia trioli:global	!	!	!	!	!	!	!
4F\	.	12a/L	12a/L	12F\L	-ta-	2r	.	2r	.	12a\L	-ta-
.	.	12g/	12g/	12E\	.	.	.	.	.	12g\	.
.	.	12a/J	12a/J	12F\J	.	.	.	.	.	12a\J	.
!	!	!LO:TUP:b	!LO:TUP:b	!	!	!	!	!	!	!	!
4G\	.	12b/L	12b/L	12G\L	.	.	.	.	.	12b\L	.
.	.	12a/	12a/	12F\	.	.	.	.	.	12a\	.
.	.	12b/J	12b/J	12G\J	.	.	.	.	.	12b\J	.
!	!	!	!	!	!	!LO:LB:g=original	!	!	!	!	!
=114	=114	=114	=114	=114	=114	=114	=114	=114	=114	=114	=114
4A\	6	12cc\L	12cc\L	12A\L	.	4r	.	4r	.	12cc\L	.
.	.	12b\	12b\	12G\	.	.	.	.	.	12b\	.
.	.	12cc\J	12cc\J	12A\J	.	.	.	.	.	12cc\J	.
4B\	6 5	12dd\L	12dd\L	12B\L	.	8d\	e-	8g\	ex-	12dd\L	.
.	.	12cc\	12cc\	12A\	.	.	.	.	.	12cc\	.
.	.	.	.	.	.	8d\	-xal-	8g\	-al-	.	.
.	.	12dd\J	12dd\J	12B\J	.	.	.	.	.	12dd\J	.
!	!	!	!	!	!	!	!	!LO:LB:g=original	!	!	!
=115	=115	=115	=115	=115	=115	=115	=115	=115	=115	=115	=115
8c\L	.	8ee\L	8ee\L	8c\	.	8c\	-ta-	8g\	-ta-	8ee\	.
8F\J	.	8aa\	8aa\	8F,\	-bit	8c\	-bit	8a\	-bit	8dd,\	-bit
!LO:PB:g=original	!	!	!	!	!	!	!	!	!	!	!
!LO:TX:t=P:problem:mixed beam	!	!	!	!	!	!	!	!	!	!	!
8G\L	.	8dd\	8dd\	4G\	Ca-	4B\	Ca-	4g\	Ca-	4dd\	Ca-
8GG/J	.	8gg\J	8gg\J	.	.	.	.	.	.	.	.
=116	=116	=116	=116	=116	=116	=116	=116	=116	=116	=116	=116
4C/	.	4ee\	4ee\	4C/	-put	4c\	-put	4g\	-put	4cc\	-put
4r	.	4r	4r	4r	.	4r	.	4r	.	4r	.
!	!	!	!LO:LB:g=original	!	!	!	!	!	!	!	!
=117	=117	=117	=117	=117	=117	=117	=117	=117	=117	=117	=117
!LO:TX:b:i:t=Tut Gloria	!	!	!	!	!	!	!	!	!	!	!
4c\	.	8ee\L	8ee\L	4c\	Glo-	4G/	Glo-	4e\	Glo-	4ee\	Glo-
.	.	8gg\	8gg\	.	.	.	.	.	.	.	.
4B\	.	8gg\	8gg\	8B\	-ri-	8G/	-ri-	8g\	-ri-	8dd\	-ri-
.	.	8gg\J	8gg\J	8B\	-a	8G/	-a	8g\	-a	8dd\	-a
!	!	!LO:LB:g=original	!	!	!	!	!	!	!	!LO:LB:g=original	!
=118	=118	=118	=118	=118	=118	=118	=118	=118	=118	=118	=118
!	!	!LO:TX:t=P:problem:mixed beam	!LO:TX:t=P:problem:mixed beam	!	!	!	!	!	!	!	!
4c\	.	8gg\L	8gg\L	4c\	Pa-	4G/	Pa-	4e\	Pa-	4cc\	Pa-
.	.	8g/	8g/	.	.	.	.	.	.	.	.
4E\	.	8g/	8g/	8E\	-tri	8c\	-tri	8g\	-tri	8cc,\	-tri
.	.	8g/J	8g/J	8E\	et	8c\	et	8g\	et	8cc\	et
=119	=119	=119	=119	=119	=119	=119	=119	=119	=119	=119	=119
!	!	!LO:TUP:b	!LO:TUP:b	!	!	!	!	!	!	!	!
4F\	6 5	12a/L	12a/L	4F\	fi-	4d\	fi-	4a\	fi-	4cc\	fi-
.	.	12g/	12g/	.	.	.	.	.	.	.	.
.	.	12a/J	12a/J	.	.	.	.	.	.	.	.
!	!	!LO:TUP:b	!LO:TUP:b	!	!	!	!	!	!	!	!
4G\	.	12b/L	12b/L	4G\	-li-	4d\	-li-	4g\	-li-	4b\	-li-
.	.	12a/	12a/	.	.	.	.	.	.	.	.
.	.	12b/J	12b/J	.	.	.	.	.	.	.	.
=120	=120	=120	=120	=120	=120	=120	=120	=120	=120	=120	=120
!	!	!LO:TX:t=P:problem:mixed beam	!LO:TX:t=P:problem:mixed beam	!	!	!	!	!	!	!	!
4C/	.	8cc\L	8cc\L	4C/	-o	4e\	-o	4g\	-o	4cc\	-o
.	.	8g/J	8f/	.	.	.	.	.	.	.	.
!	!	!LO:TX:t=P:problem:mixed beam	!LO:TX:t=P:problem: o jedną ósemkę za mało w takcie	!	!	!	!	!	!	!	!
4r	.	8f/L	8gg\J	4r	.	4r	.	4r	.	4r	.
.	.	8gg\J	8ryy	.	.	.	.	.	.	.	.
!	!	!	!	!LO:LB:g=original	!	!	!	!	!	!	!
=121	=121	=121	=121	=121	=121	=121	=121	=121	=121	=121	=121
4c\	.	12ee\L	12ee\L	4c\	Et	4c\	et	4g\	et	4ee\	et
.	.	12ff\	12ff\	.	.	.	.	.	.	.	.
.	.	12ee\J	12ee\J	.	.	.	.	.	.	.	.
4B\	.	12dd\L	12dd\L	4B\	ſpi-	4d\	ſpi-	4g\	ſpi-	4dd\	ſpi-
.	.	12ee\	12ee\	.	.	.	.	.	.	.	.
.	.	12dd\J	12dd\J	.	.	.	.	.	.	.	.
=122	=122	=122	=122	=122	=122	=122	=122	=122	=122	=122	=122
4A\	6|	12cc\L	12cc\L	4A\	-ri-	4A\	-ri-	8e\L	-ri-	4cc\	-ri-
.	5	12dd\	12dd\	.	.	.	.	.	.	.	.
.	.	.	.	.	.	.	.	8f#X\J	.	.	.
.	.	12cc\J	12cc\J	.	.	.	.	.	.	.	.
4G\	.	12b\L	12b\L	8G\	-tu-	8d\	-tu-	8g\	-tu-	8b\	-tu-
.	.	12cc\	12cc\	.	.	.	.	.	.	.	.
.	.	.	.	8G,\	-i	8d\	-i	8g\	-i	8b\	-i
.	.	12b\J	12b\J	.	.	.	.	.	.	.	.
=123	=123	=123	=123	=123	=123	=123	=123	=123	=123	=123	=123
!	!	!LO:TUP:b	!LO:TUP:b	!	!	!	!	!	!	!	!
2D/	.	12a/L	12a/L	2D/	ſanc-	2c\	ſanc-	4g\	ſan-	2a\	ſanc-
.	.	12b/	12b/	.	.	.	.	.	.	.	.
.	.	12a/J	12a/J	.	.	.	.	.	.	.	.
.	.	12dd\L	12dd\L	.	.	.	.	4f#X\	-cto	.	.
.	.	12ee\	12ee\	.	.	.	.	.	.	.	.
.	.	12dd\J	12dd\J	.	.	.	.	.	.	.	.
=124	=124	=124	=124	=124	=124	=124	=124	=124	=124	=124	=124
8GG/L	.	8b/L	8b/L	4G,\	-to	4d\	-to	4g,\	.	4g,/	-to
!LO:TX:t=P:problem:mixed beam	!	!LO:TX:t=P:problem: wysokość nut 2-4 nieprecyzyjna: f lub g,\npod każdą z nut dopisana litera g	!	!	!	!	!	!	!	!	!
8G\J	.	8g/	8g/	.	.	.	.	.	.	.	.
!	!	!	!	!	!	!LO:PB:g=original	!	!	!	!	!
8E\L	6	8g/	8g/	8E\	ſi-	8c\	ſi-	8g\	ſi-	8g/	ſi-
8C\J	.	8g/J	8g/J	8C/	-cut	8c\	-cut	8e\	-cut	8g/	-cut
!	!	!	!	!	!	!	!	!LO:LB:g=original	!	!	!
=125	=125	=125	=125	=125	=125	=125	=125	=125	=125	=125	=125
!	!	!	!LO:TUP:b	!	!	!	!	!	!	!	!
4F\	.	8a/L	12a/L	8F\	e-	8c\	e-	8a\	e-	8a\	e-
.	.	.	12g/	.	.	.	.	.	.	.	.
.	.	16g/L	.	8F\	-rat	8c\	-rat	8a\	-rat	8a\	-rat
.	.	.	12a/J	.	.	.	.	.	.	.	.
.	.	16a/JJ	.	.	.	.	.	.	.	.	.
!	!	!	!LO:PB:g=original	!	!	!	!	!	!	!	!
4G\	.	12b/L	12b/L	8G\	in	8B\	in	8d\	in	8b\	in
.	.	12a/	12a/	.	.	.	.	.	.	.	.
.	.	.	.	8G\	prin-	8B\	prin-	8d\	prin-	8b\	prin-
.	.	12b/J	12b/J	.	.	.	.	.	.	.	.
!	!	!LO:PB:g=original	!	!	!	!	!	!	!	!	!
=126	=126	=126	=126	=126	=126	=126	=126	=126	=126	=126	=126
4A\	6	12cc\L	12cc\L	8A\	-ci-	8A/	-ci-	8f\	-ci-	8cc\	-ci-
.	.	12b\	12b\	.	.	.	.	.	.	.	.
.	.	.	.	8A\	-pi-	8A/	-pi-	8f\	-pi-	8cc\	-pi-
.	.	12cc\J	12cc\J	.	.	.	.	.	.	.	.
4B\	6 5	12dd\L	12dd\L	8B,\	-o	8d,\	-o	8f\	-o	8dd\	-o
.	.	12cc\	12cc\	.	.	.	.	.	.	.	.
.	.	.	.	8B\	et	8d\	et	8f\	et	8dd\	et
.	.	12dd\J	12dd\J	.	.	.	.	.	.	.	.
!	!	!	!	!	!	!	!	!	!	!LO:PB:g=original	!
=127	=127	=127	=127	=127	=127	=127	=127	=127	=127	=127	=127
8c\L	.	8ee\L	8ee\L	8c\	nun	8c\	nun	8e\	nunc	8ee,\	nunc
8F\J	6 5	8aa\	8aa\	8F\	et	8c\	et	8a\	et	8dd\	et
!LO:PB:g=original	!	!	!	!	!	!	!	!	!	!	!
!LO:TX:t=P:problem:mixed beam	!	!	!	!	!	!	!	!	!	!	!
8G\L	.	8dd\	8dd\	4G\	ſem-	4B\	ſem-	4g\	ſem-	4dd\	ſem-
8GG/J	.	8gg\J	8gg\J	.	.	.	.	.	.	.	.
=128	=128	=128	=128	=128	=128	=128	=128	=128	=128	=128	=128
4C/	.	4ee\	8ee\L	4C/	-per	4c\	-per	4g,\	-per	4cc,\	-per
.	.	.	8ee\	.	.	.	.	.	.	.	.
*clefC1	*	*	*	*	*	*	*	*	*	*	*
*^	*	*	*	*	*	*	*	*	*	*	*
8b/L	8g\L	.	8b\L	8b\	4r	.	4r	.	8g\	et	8b\	et
8b/J	8g\J	.	8b\J	8b\J	.	.	.	.	8g\	in	8b\	in
!	!	!	!	!	!LO:PB:g=original	!	!	!	!	!	!	!
=129	=129	=129	=129	=129	=129	=129	=129	=129	=129	=129	=129	=129
!	!	!	!	!	!LO:N:vis=0	!	!	!	!	!	!	!
8cc/L	8e\L	.	4cc\	8cc\L	1r	.	2r	.	8e\	ſae-	8cc\	ſae-
8cc/J	8e\J	.	.	8cc\	.	.	.	.	16e\	-cu-	16cc\	-cu-
.	.	.	.	.	.	.	.	.	16e\	-la	16cc\	-la
8dd/L	8f#X\L	.	8dd\L	8dd\	.	.	.	.	8f#X\	ſae-	8dd\	ſae-
8dd/J	8f#\J	.	8dd\J	8dd\J	.	.	.	.	8f#\	-cu-	8dd\	-cu-
=130	=130	=130	=130	=130	=130	=130	=130	=130	=130	=130	=130	=130
8b/L	8g\L	.	8b/L	8b/L	.	.	4r	.	8g\	-lo-	8b\	-lo-
8b/J	8g\J	.	8b/	8b/	.	.	.	.	8g,\	-rum	8b,\	-rum
*v	*v	*	*	*	*	*	*	*	*	*	*	*
*clefC4	*	*	*	*	*	*	*	*	*	*	*
8d\L	.	8a/	8a/	.	.	8d\	et	8f#X\	et	8a\	et
8d\J	.	8a/J	8a/J	.	.	8d\	in	8f#\	in	8a\	in
=131	=131	=131	=131	=131	=131	=131	=131	=131	=131	=131	=131
8B\L	.	8a/L	8a/L	2r	.	8B\	ſae-	8g\	ſae-	8dd\	ſae-
!	!	!	!	!	!	!	!	!LO:PB:g=original	!	!	!
8B\J	.	8a/	8a/	.	.	16B\	-cu-	16g\	-cu-	16dd\	-cu-
.	.	.	.	.	.	16B\	-la	16g\	-la	16dd\	-la
8c#X\L	6 5	8b/	8b/	.	.	8c#X\	ſae-	8g\	ſae-	8ee\	ſae-
8c#\J	.	8b/J	8b/J	.	.	8c#\	-cu-	8g\	-cu-	8ee\	-cu-
!	!	!	!	!	!	!LO:LB:g=original	!	!	!	!	!
=132	=132	=132	=132	=132	=132	=132	=132	=132	=132	=132	=132
8d\L	#	8a/L	8a/L	4r	.	8d\	-lo-	8f#X\	-lo-	8a\	-lo-
8d\J	.	8a/	8a/	.	.	8d,\	-rum	8f#,\	-rum	8a\	-ru(m)
*clefF4	*	*	*	*	*	*	*	*	*	*	*
8G\	.	8b/	8b/	8G\	Et	8d\	et	8g\	et	8b\	et
8G\	.	8b/J	8b/J	8G\	in	8d\	in	8g\	in	8b\	in
=133	=133	=133	=133	=133	=133	=133	=133	=133	=133	=133	=133
8E\L	6	8cc\L	8cc\L	8E\	ſae-	8e\	ſae-	8g\	ſae-	8cc\	ſae-
8E\J	.	8cc\	8cc\	16E\	-cu-	16e\	-cu-	16g\	-cu-	16cc\	-cu-
.	.	.	.	16E\	-la	16e,\	-la	16g\	-la	16cc\	-la
!	!	!	!	!	!	!	!	!	!	!LO:LB:g=original	!
8F\L	6 5	8dd\	8dd\	8F\	ſae-	8d\	ſae-	8a\	ſae-	8cc\	ſae-
8F\J	.	8dd\J	8dd\J	8F\	-cu-	8d\	-cu-	8a\	-cu-	8cc\	-cu-
!LO:PB:g=original	!	!	!	!	!	!	!	!	!	!	!
=134	=134	=134	=134	=134	=134	=134	=134	=134	=134	=134	=134
8G\L	.	8b\L	8b\L	8G\	-lo-	8d\	-lo-	8g\	-lo-	8b\	-lo-
8G\	.	8b\	8b\J	8G,\	-ru(m)	8d,\	-rum	8g,\	-ru(m)	8b\	-ru(m)
!	!	!	!LO:PB:g=original	!	!	!	!	!	!	!	!
8c\	.	8ee\	8ee\L	8c\	Et	8c\	et	8g\	et	8ee\	et
8c\J	.	8ee\J	8ee\J	8c\	in	8c\	in	8g\	in	8ee\	in
=135	=135	=135	=135	=135	=135	=135	=135	=135	=135	=135	=135
8A\L	6	8ff\L	8ff\L	8A\	ſae-	8c\	ſae-	8a\	ſae-	8ff\	ſae-
8A\	.	8ff\	8ff\	16A\	-cu-	16c\	-cu-	16a\	-cu-	16ff\	-cu-
.	.	.	.	16A\	-la	16c\	-la	16a\	-la	16ff\	-la
8B\	6 5	8gg\	8gg\	8B\	ſae-	8d\	ſae-	8g\	ſae-	8ff\	ſae-
8B\J	.	8gg\J	8gg\J	8B\	-cu-	8d\	-cu-	8g\	-cu-	8ff\	-cu-
=136	=136	=136	=136	=136	=136	=136	=136	=136	=136	=136	=136
8c\L	.	8ee\L	8ee\L	8c\	-lo-	8c\	-lo-	8g\	-lo-	8ee\	-lo-
8F\J	6 5	8aa\J	8aa\	8F\	-rum	8c\	-ru(m)	8a\	-ru(m)	8dd\	-ru(m)
!LO:TX:t=P:problem:mixed beam	!	!LO:PB:g=original	!	!	!	!	!	!	!	!	!
8G\L	.	8dd\L	8dd\	4G\	A-	4B\	A-	4g\	A-	4dd\	A-
8GG/J	.	8gg\J	8gg\J	.	.	.	.	.	.	.	.
!	!	!	!	!LO:PB:g=original	!	!	!	!	!	!	!
=137	=137	=137	=137	=137	=137	=137	=137	=137	=137	=137	=137
!	!	!LO:TX:t=P:problem:mixed beam	!LO:TX:t=P:problem:mixed beam	!	!	!	!	!	!	!	!
4C/	.	8ee\L	8ee\L	4C/	-men	4c\	-men	4g\	-men	8cc,\	-men
.	.	8g/	8g/J	.	.	.	.	.	.	4g/	{A-
8r	.	8g/	8g/L	8r	.	8r	.	8r	.	.	.
8E/	.	8g/J	8g/J	(8E\	A-	(8c\	A-	8g\	A-	8g/	-men}
!	!	!	!	!	!	!LO:LB:g=original	!	!	!	!	!
=138	=138	=138	=138	=138	=138	=138	=138	=138	=138	=138	=138
!	!	!LO:TUP:b	!	!	!	!	!	!	!	!	!
4F\	.	12a/L	12a/L	4F\)	.	4A/)	-men	4c\	.	12a\L	A-
.	.	12g/	12g/	.	.	.	.	.	.	12g\	.
.	.	12a/J	12a/J	.	.	.	.	.	.	12a\J	.
*	*	*Xtuplet	*	*	*	*	*	*	*	*	*
!	!	!LO:TX:t=P:problem:brak oznaczenia trioli	!	!	!	!	!	!	!	!	!
8r	.	12b/L	12b/L	8r	.	8r	.	8r	.	12b\L	.
.	.	12a/	12a/	.	.	.	.	.	.	12a\	.
8G\	.	.	.	8G\	.	(8d\	{A-	8g\	.	.	.
.	.	12b/J	12b/J	.	.	.	.	.	.	12b\J	.
*	*	*tuplet	*	*	*	*	*	*	*	*	*
=139	=139	=139	=139	=139	=139	=139	=139	=139	=139	=139	=139
4A\	.	12cc\L	12cc\L	4A\	.	4c\)	-men}	4e\	.	12cc\L	.
.	.	12b\	12b\	.	.	.	.	.	.	12b\	.
.	.	12cc\J	12cc\J	.	.	.	.	.	.	12cc\J	.
*	*	*	*Xtuplet	*	*	*	*	*	*	*	*
!	!	!	!LO:TX:t=P:problem:brak oznaczenia trioli	!	!	!	!	!	!	!LO:LB:g=original	!
8r	.	12dd\L	12dd\L	8r	.	8r	.	8r	.	12dd\L	.
.	.	12cc\	12cc\	.	.	.	.	.	.	12cc\	.
8B\	.	.	.	8B\	.	(8G/	{A-	8g\	.	.	.
.	.	12dd\J	12dd\J	.	.	.	.	.	.	12dd\J	.
!	!	!	!	!	!	!	!	!LO:LB:g=original	!	!	!
=140	=140	=140	=140	=140	=140	=140	=140	=140	=140	=140	=140
!LO:TX:t=P:problem:mixed beam	!	!	!	!	!	!	!	!	!	!	!
8c\L	.	8ee\L	8ee\L	8c\	.	8c\)	.	8g\	.	8ee\	.
8F\	.	8aa\	8aa\	8F\	.	8c,\	-men}	8a,\	-men	8dd\	-men
!	!	!	!	!LO:TX:t=P:problem:mixed beam	!	!	!	!	!	!	!
8G\	.	8dd\	8dd\	8G\L	.	4B\	A-	4g\	A-	4dd\	A-
8GG/J	.	8gg\J	8gg\J	8GG/J	.	.	.	.	.	.	.
=141	=141	=141	=141	=141	=141	=141	=141	=141	=141	=141	=141
4C/	.	4ee\	4ee\	4C/	-men	4c\	-men	4g\	-men	4cc\	-men
4r	.	4r	4r	4r	.	4r	.	4r	.	4r	.
==	==	==	==	==	==	==	==	==	==	==	==
*-	*-	*-	*-	*-	*-	*-	*-	*-	*-	*-	*-
!!!system-decoration: [(g1)][(g2)][(g3)]
!!!ENC:Anna Matuszewska
!!!END:2020-11-04
!!!ENC: Mateusz Solarz
!!!END: 2020-06-06
